!!!COM: Vivaldi, Antonio Lucio
!!!CDT: 1678/03/04-1741/08/28
!!!OPR: 12 Sonatas for Violin and Basso continuo
!!!OTL: Sonata in D major, op. @{OPS}, no. @{ONM} (@{SCT})
!!!OPS: 2
!!!ONM: 11
!!!OMV: 1. Preludio
!!!SCT: RV 21
!!!SCA: Antonio Vivaldi: Thematisch-systematisches Verzeichnis seiner Werke (Ryom-Verzeichnis)
!!!OMD: Andante
!!!key: D
**kern	**fb	**kern
*part2	*	*part1
*staff2	*	*staff1
*ICklav	*	*ICstr
*Icemba	*	*Ivioln
*I"Basso continuo	*	*I"Violino
*I'bc	*	*I'v
*>[A,A,B,B1,B,B2]	*>[A,A,B,B1,B,B2]	*>[A,A,B,B1,B,B2]
*>norep[A,B,B2]	*>norep[A,B,B2]	*>norep[A,B,B2]
*>A	*>A	*>A
*clefF4	*	*clefG2
*k[f#c#]	*	*k[f#c#]
*D:	*	*D:
*M3/4	*	*M3/4
*MM128	*	*MM128
4AA/	.	4r
=1	=1	=1
4.D\	.	2.r
8E\	.	.
8F#y\L	.	.
8G\J	.	.
=2	=2	=2
4A\	.	2.r
4.D\	.	.
8B\	.	.
=3	=3	=3
4.G\	.	4r
.	.	4r
8F#y\	.	.
8G\L	.	4a/
8A\J	.	.
=4	=4	=4
8F#y\L	6	4.dd\
8E\J	.	.
4D\	.	.
.	.	8ee\
4r	.	8ff#y\L
.	.	8gg\J
=5	=5	=5
4r	.	4aa\
[2f#y\	6	4.dd\
.	.	8bb\
=6	=6	=6
4f#y\]	4 2	4.gg\
[2e\	5 3	.
.	.	8ff#y\
.	.	8gg\L
.	.	8aa\J
=7	=7	=7
4e\]	4 2	4.ff#y\
2d\	5 3	.
.	.	8ee\
.	.	8ff#y\L
.	.	8dd\J
=8	=8	=8
4c#y\	6	4ee\
8A\L	.	4a/
8B\	.	.
8c#y\	.	8r
8A\J	.	8aa\
=9	=9	=9
2B\	7	8aa\L
.	.	8b\
.	6	(8gg\
.	.	8b\
4c#y\	6 5	8a\)
.	.	8gg\J
!!LO:LB:g=original
=10	=10	=10
4d\	5 4	(4gg\T
8D\L	3	4ff#y\)
8E\	.	.
8F#y\	.	8r
8D\J	.	8ff#y\
=11	=11	=11
4G\	.	4bb\
2G#X\	6	4.ee\
.	5	8dd\
=12	=12	=12
4.A\	.	4.cc#y\
8Gn\	6 4 2	8a/
4F#y\	6	[4dd\
=13	=13	=13
4G\	6 5	8dd\L]
.	.	8ee\J
4A\	5 4	4.ee\T
4AA/	3	.
.	.	8dd\
=14	=14	=14
4.D\	.	2dd\
8E\	.	.
8F#y\L	.	4r
8G\J	.	.
=15	=15	=15
4A\	.	4r
4D\	.	4r
4d\	.	4ff#y\
=16	=16	=16
4.c#y\	6	4.ee\
8B\	.	8dd\
8c#y\L	.	8ee\L
8d\J	.	8ff#y\J
=17	=17	=17
4.B\	.	4.dd\
8A\	.	8cc#y\
8B\L	.	8dd\L
8c#y\J	.	8ee\J
=18	=18	=18
4.A\	.	4cc#y\
.	.	4a/
8B\	.	.
8c#y\L	.	8r
8A\J	6	8ff#y\
=19	=19	=19
4.G#X\	7	(4ff#y\t
.	6	4ee\)
8A\	.	.
8B\L	.	8r
8G#y\J	.	8ee\
=20	=20	=20
2F#y\	7	8ee/L
.	.	8f#y/
.	6	(8dd/
.	.	8f#y/
4G#X\	6 5	8e/)
.	.	8dd/J
=21	=21	=21
4.AA/	5 4	(4dd\T
.	X 3	4cc#y\)
8BB/	.	.
8C#y/L	.	8r
8AA/J	.	8cc#y\
!!LO:LB:g=original
=22	=22	=22
4D\	.	4ff#y\
2D#X\	6	4.b\
.	5	8a/
=23	=23	=23
4.E\	#	4.g#X/
8Dn\	4#| 2	8e/
4C#y/	6	[4a/
=24	=24	=24
4D\	6 5	8a/L]
.	.	8b/J
4E\	5 4	4.b\T
4EE/	#	.
.	.	8a/
=25	=25	=25
2AA/	.	2a/
=:|!|:	=:|!|:	=:|!|:
*>B	*>B	*>B
4r	.	4a/
=26	=26	=26
4r	.	4.dd\
4r	.	.
.	.	8ee\
4D\	.	8ff#y\L
.	.	8dd\J
=27	=27	=27
4.G\	.	4b\
.	.	4r
8A\	.	.
8B\L	.	4bb\
8G\J	.	.
=28	=28	=28
4E\	.	(4gg\
4r	.	4ee\)
4e\	6	4cc#y\
=29	=29	=29
(4c#y\	6#/	4a#X/
4A#X\)	6 5	4r
4F#y\	7 #	4r
=30	=30	=30
4D\	.	4ff#y\
4r	.	4.b\
4d\	6	.
.	.	8b\
=31	=31	=31
2.E#X\	6 5	4gg#X\
.	.	8b\L
.	.	8dd\
.	.	8cc#y\
.	.	8b\J
=32	=32	=32
4.F#y\	5	8a/L
.	.	8g#X/J
.	.	4f#y/
8G#X\	.	.
4A\	6	4ff#y\
=33	=33	=33
4B\	6#/ 5	4r
4c#y\	5#| 4	4c#y/
4C#y/	#	4ee#X\
!!LO:LB:g=original
=34	=34	=34
4.F#y\	.	4ff#y\
.	.	4f#y/
8G#X\	.	.
8A\L	.	4r
8B\J	.	.
=35	=35	=35
4c#y\	5#|	4r
4.F#y\	5 3	8ff#y\L
.	.	8gg#X\J
.	.	[4aa\
8E\	4 2	.
=36	=36	=36
2D#X\	5	8aa\L]
.	.	8b\
.	.	(8dd#X\
.	.	8ff#y\)
4BB/	#	(8bb\
.	.	8ff#y\J)
=37	=37	=37
4E\	.	(4ggn\
4F#y\	.	4ff#y\
4G\	.	4ee\)
=38	=38	=38
2A\	6nr	(4ffn\
.	5	4ee\
4B\	7 #	4dd#X\)
=39	=39	=39
(4c\	6	[2.ee\
4B\	.	.
4A\)	.	.
=40	=40	=40
(4G\	6	2.ee\_
4F#y\	.	.
4E\)	.	.
=41	=41	=41
2AA#X/	5	4ee\]
.	.	8r
.	.	8cc#y\
4BB/	.	[4dd\
=42	=42	=42
2E\	7	8dd\L]
.	.	8ee\J
.	6nr	4.ccn\
4F#y\	5	.
.	.	8cc\
=43	=43	=43
4G\	4nr	(4ccn\T
4GG/	3	4b\)
[4G\	6	8r
.	.	8ee\
=44	=44	=44
4G\]	6 4#|	8cc#X\L
.	.	8b\J
8F#y\L	5	4a/
8E\	.	.
8F#y\	6	4dd\
8D\J	.	.
=45	=45	=45
4E\	.	4gg\
4C#y/	5	4.gg\
4AA/	7	.
.	.	8gg\
!!LO:LB:g=original
=46	=46	=46
4d\	4	(4gg\T
4D\	3	4ff#y\)
[4d\	6	8r
.	.	8bb\
=47	=47	=47
4d\]	4#| 2	8gg#X\L
.	.	8ff#y\J
8c#y\L	6	4ee\
8B\	.	.
8c#y\	.	4aa\
8A\J	.	.
=48	=48	=48
4d\	.	4cc#y\
4e\	5 4	4.b\T
4E\	#	.
.	.	8a/
=49	=49	=49
4.A\	.	4a/
.	.	4r
8B\	.	.
8c#y\L	.	4r
8d\J	.	.
=50	=50	=50
4e\	#	4ee\
4A\	.	4cc#y\
4r	.	4a/
=51	=51	=51
4B\	.	4.dd\
4G#X\	5	.
.	.	8cc#y\
4E\	8 7	8dd\L
.	.	8ee\J
=52	=52	=52
4.A\	.	8cc#y\L
.	.	8b\J
.	.	4a/
8B\	.	.
8c#y\L	.	8r
8A\J	6	8ff#y\
=53	=53	=53
4.G#X\	7	(4ff#y\t
.	6	4.ee\)
8A\	.	.
8B\L	6#/ 4	.
8G#y\J	.	8ee\
=54	=54	=54
2F#y\	7	8ee/L
.	.	8f#y/
.	6	(8dd/
.	.	8f#y/
4G#X\	6 5	8e/)
.	.	8dd/J
=55	=55	=55
4.A\	5 4	(4dd\T
.	X n	4cc#y\)
8B\	.	.
8c#y\L	.	8r
8A\J	.	8cc#y\
=56	=56	=56
2D#X\	6	4ff#y\
.	.	4.b\
4E#X\	6 5	.
.	.	8b\
!!LO:LB:g=original
=57	=57	=57
4.F#y\	5 4	(4b\T
.	X 3	4a/)
8G#X\	.	.
8A\L	.	8r
8F#y\J	.	8a/
=58	=58	=58
2BB/	5	(8dd/L
.	.	8b/)
.	6	(8g/
.	.	8G/)
4C#y/	6 5	(8A/
.	.	8g/J)
=59	=59	=59
4.D\	5 4	(4g/T
.	X 3	4f#y/)
8E\	.	.
8F#y\L	.	8r
8D\J	.	8a/
=60	=60	=60
4G\	.	4b\
2G#X\	6	4.ee\
.	5	8dd\
=61	=61	=61
4.A\	.	4.cc#y\
8Gn\	6 4 2	8a/
4F#y\	6	[4dd\
=62	=62	=62
4G\	6 5	8dd\L]
.	.	8ee\J
4A\	5 4	4.ee\T
4AA/	3	.
.	.	8dd\
=63	=63	=63
4D\	.	2dd\
4F#y\	.	.
[4A\	n	4ccn\
=64	=64	=64
4A\]	4 2	4.b\
4.G\	6	.
.	.	8ee\
.	.	8gg\L
8G\	.	8ee\J
=65	=65	=65
2G\	4 2	4.cc#y\
.	.	8a/
4F#y\	6	8dd\L
.	.	8a\J
=66	=66	=66
4G\	7 5	8g/L
.	.	8f#y/J
4A\	5 4	4.e/T
4AA/	3	.
.	.	8d/
=67	=67	=67
*>B1	*>B1	*>B1
2D\	.	2d/
=67:|!	=67:|!	=67:|!
*>B2	*>B2	*>B2
2.D\	.	2.d/
==	==	==
*-	*-	*-
!!!SMS: RV 9 / Estienne Roger, Amsterdam [facs.]
!!!ENC: Fran Bennion; rev. 04/21 E. Correia
!!!END: 2004/12/22
!!!ONB: Converted from MuseData with musedata2hum on Sat May 11 12:07:53 2024
!!!YEM: (C) 2004, 2004 Center for Computer Assisted Research in the Humanities.
!!!system-decoration: [(s1,s2)]
!!!URL-info: https://wiki.ccarh.org/wiki/MuseData:_Antonio_Vivaldi#Op._2:_Sonate_a_violino_e_basso_per_il_cembalo
!!!URL-pdf: https://pdf.musedata.org/vivaldi-op02-no11.pdf#page=1 MuseData edition
!!!URL-pdf: http://conquest.imslp.info/files/imglnks/usimg/b/b7/IMSLP99075-PMLP183164-Vivaldi_-_Sonatas_Op2.pdf#page=39 Estienne Roger Amsterdam: Estienne Roger, No.2, n.d.[1711].
!!!URL-youtube: https://www.youtube.com/watch?v=SiijZmW9jKM&t=2533s L'Arte dell'Arco
!!!title: @{OTL}, mov. @{OMV}
!!!filter-chint: chint -mid
!!!EEV: 2024/05/11
!!!source-file: https://bitbucket.org/musedata/vivaldi/src/master/roger/op2/no11/stage2/01/01
!!!source-file: https://bitbucket.org/musedata/vivaldi/src/master/roger/op2/no11/stage2/01/02
